**kern
*staff1
*tb48
=1-
*clefG2
*k[b-]
*met(c)
*M4/4
2r
.
.
.
.
.
.
.
.
.
.
.
.
.
.
.
.
.
.
.
.
.
.
.
4r
.
.
.
.
.
.
.
.
.
.
.
8a/L
.
.
.
.
.
8f/J
.
.
.
.
.
=2
4e/
.
.
.
.
.
.
.
.
.
.
.
8a/
.
.
.
.
.
8f/
.
.
.
.
.
4e/
.
.
.
.
.
.
.
.
.
.
.
8a/
.
.
.
.
.
8dd\
.
.
.
.
.
=3
2dd\
.
.
.
.
.
.
.
.
.
.
.
.
.
.
.
.
.
.
.
.
.
.
.
4cc#\
.
.
.
.
.
.
.
.
.
.
.
4a/
.
.
.
.
.
.
.
.
.
.
.
=4
2.b-\
.
.
.
.
.
.
.
.
.
.
.
.
.
.
.
.
.
.
.
.
.
.
.
.
.
.
.
.
.
.
.
.
.
.
.
4b-\
.
.
.
.
.
.
.
.
.
.
.
=5
!!linebreak:original
4a/
.
.
.
.
.
.
.
.
.
.
.
8g/
.
.
.
.
.
8a/
.
.
.
.
.
4f#/
.
.
.
.
.
.
.
.
.
.
.
8.dd\L
.
.
.
.
.
.
.
.
16b-\JJ
.
.
=6
4a/
.
.
.
.
.
.
.
.
.
.
.
8.dd\L
.
.
.
.
.
.
.
.
16b-\JJ
.
.
4a/
.
.
.
.
.
.
.
.
.
.
.
8dd\L
.
.
.
.
.
8gg\J
.
.
.
.
.
=7
2gg\
.
.
.
.
.
.
.
.
.
.
.
.
.
.
.
.
.
.
.
.
.
.
.
4ff#\
.
.
.
.
.
.
.
.
.
.
.
4dd\
.
.
.
.
.
.
.
.
.
.
.
=8
[2ffn\
.
.
.
.
.
.
.
.
.
.
.
.
.
.
.
.
.
.
.
.
.
.
.
8ff\L]
.
.
.
.
.
8dd\J
.
.
.
.
.
8cc\L
.
.
.
.
.
8bn\J
.
.
.
.
.
=9
!!linebreak:original
[2cc\
.
.
.
.
.
.
.
.
.
.
.
.
.
.
.
.
.
.
.
.
.
.
.
8cc'\L]
.
.
.
.
.
8a\J
.
.
.
.
.
8b-/L
.
.
.
.
.
8g/J
.
.
.
.
.
=10
4f/
.
.
.
.
.
.
.
.
.
.
.
4r
.
.
.
.
.
.
.
.
.
.
.
4r
.
.
.
.
.
.
.
.
.
.
.
4a/
.
.
.
.
.
.
.
.
.
.
.
=11
4a/
.
.
.
.
.
.
.
.
.
.
.
8b-\
.
.
.
.
.
8a/
.
.
.
.
.
4a/
.
.
.
.
.
.
.
.
.
.
.
4b-\
.
.
.
.
.
.
.
.
.
.
.
=12
(4.cc\
.
.
.
.
.
.
.
.
.
.
.
.
.
.
.
.
.
8a/)
.
.
.
.
.
4f/
.
.
.
.
.
.
.
.
.
.
.
4r
.
.
.
.
.
.
.
.
.
.
.
=13
!!linebreak:original
4f/
.
.
.
.
.
.
.
.
.
.
.
8g-/
.
.
.
.
.
8f/
.
.
.
.
.
4f/
.
.
.
.
.
.
.
.
.
.
.
8g-/
.
.
.
.
.
8f/
.
.
.
.
.
=14
4f/
.
.
.
.
.
.
.
.
.
.
.
4r
.
.
.
.
.
.
.
.
.
.
.
2r
.
.
.
.
.
.
.
.
.
.
.
.
.
.
.
.
.
.
.
.
.
.
.
=15
4r
.
.
.
.
.
.
.
.
.
.
.
4a/
.
.
.
.
.
.
.
.
.
.
.
4b-\
.
.
.
.
.
.
.
.
.
.
.
4a/
.
.
.
.
.
.
.
.
.
.
.
=16
4b-\
.
.
.
.
.
.
.
.
.
.
.
8.bn\
.
.
.
.
.
.
.
.
16b\
.
.
4cc\
.
.
.
.
.
.
.
.
.
.
.
8.cc#\
.
.
.
.
.
.
.
.
16a/
.
.
=17
!!linebreak:original
(8dd\L
.
.
.
.
.
8ee\
.
.
.
.
.
8ff\
.
.
.
.
.
8ee\J
.
.
.
.
.
8dd\L
.
.
.
.
.
8cc#\
.
.
.
.
.
8dd\
.
.
.
.
.
8b-\J
.
.
.
.
.
=18
8a/L
.
.
.
.
.
8g#/J)
.
.
.
.
.
8a/L
.
.
.
.
.
8gn/J
.
.
.
.
.
4.f/
.
.
.
.
.
.
.
.
.
.
.
.
.
.
.
.
.
8e/
.
.
.
.
.
=19
4d/
.
.
.
.
.
.
.
.
.
.
.
4r
.
.
.
.
.
.
.
.
.
.
.
2r
.
.
.
.
.
.
.
.
.
.
.
.
.
.
.
.
.
.
.
.
.
.
.
=20
1r
.
.
.
.
.
.
.
.
.
.
.
.
.
.
.
.
.
.
.
.
.
.
.
.
.
.
.
.
.
.
.
.
.
.
.
.
.
.
.
.
.
.
.
.
.
.
.
=21
!!linebreak:original
2r
.
.
.
.
.
.
.
.
.
.
.
.
.
.
.
.
.
.
.
.
.
.
.
4r
.
.
.
.
.
.
.
.
.
.
.
8.a/L
.
.
.
.
.
.
.
.
16f/JJ
.
.
=22
4e/
.
.
.
.
.
.
.
.
.
.
.
8.a/L
.
.
.
.
.
.
.
.
16f/JJ
.
.
4e/
.
.
.
.
.
.
.
.
.
.
.
8a\L
.
.
.
.
.
8dd\J
.
.
.
.
.
=23
2dd\
.
.
.
.
.
.
.
.
.
.
.
.
.
.
.
.
.
.
.
.
.
.
.
4cc#\
.
.
.
.
.
.
.
.
.
.
.
4a/
.
.
.
.
.
.
.
.
.
.
.
=24
2.b-\
.
.
.
.
.
.
.
.
.
.
.
.
.
.
.
.
.
.
.
.
.
.
.
.
.
.
.
.
.
.
.
.
.
.
.
4b-\
.
.
.
.
.
.
.
.
.
.
.
=25
!!linebreak:original
4.a/
.
.
.
.
.
.
.
.
.
.
.
.
.
.
.
.
.
8g/
.
.
.
.
.
4f#/
.
.
.
.
.
.
.
.
.
.
.
8.dd\L
.
.
.
.
.
.
.
.
16b-\JJ
.
.
=26
4a/
.
.
.
.
.
.
.
.
.
.
.
8dd\
.
.
.
.
.
8b-\
.
.
.
.
.
4a/
.
.
.
.
.
.
.
.
.
.
.
8dd\L
.
.
.
.
.
8gg\J
.
.
.
.
.
=27
2gg\
.
.
.
.
.
.
.
.
.
.
.
.
.
.
.
.
.
.
.
.
.
.
.
4ff#\
.
.
.
.
.
.
.
.
.
.
.
4dd\
.
.
.
.
.
.
.
.
.
.
.
=28
[2ffn\
.
.
.
.
.
.
.
.
.
.
.
.
.
.
.
.
.
.
.
.
.
.
.
8ff\L]
.
.
.
.
.
8dd\J
.
.
.
.
.
8cc\L
.
.
.
.
.
8bn\J
.
.
.
.
.
=29
!!linebreak:original
[2cc\
.
.
.
.
.
.
.
.
.
.
.
.
.
.
.
.
.
.
.
.
.
.
.
8cc'\L]
.
.
.
.
.
8a\J
.
.
.
.
.
8b-/L
.
.
.
.
.
8g/J
.
.
.
.
.
=30
4f/
.
.
.
.
.
.
.
.
.
.
.
4r
.
.
.
.
.
.
.
.
.
.
.
4r
.
.
.
.
.
.
.
.
.
.
.
4a/
.
.
.
.
.
.
.
.
.
.
.
=31
4a/
.
.
.
.
.
.
.
.
.
.
.
8b-/L
.
.
.
.
.
8a/J
.
.
.
.
.
4a/
.
.
.
.
.
.
.
.
.
.
.
8a/
.
.
.
.
.
8b-/
.
.
.
.
.
=32
!!linebreak:original
(4.cc\
.
.
.
.
.
.
.
.
.
.
.
.
.
.
.
.
.
8a/)
.
.
.
.
.
4f/
.
.
.
.
.
.
.
.
.
.
.
8.g-/L
.
.
.
.
.
.
.
.
16f/JJ
.
.
=33
4f/
.
.
.
.
.
.
.
.
.
.
.
8.g-/L
.
.
.
.
.
.
.
.
16f/JJ
.
.
4f/
.
.
.
.
.
.
.
.
.
.
.
8ee-\
.
.
.
.
.
8dd\
.
.
.
.
.
=34
4dd\
.
.
.
.
.
.
.
.
.
.
.
4r
.
.
.
.
.
.
.
.
.
.
.
4r
.
.
.
.
.
.
.
.
.
.
.
4r
.
.
.
.
.
.
.
.
.
.
.
=35
4r
.
.
.
.
.
.
.
.
.
.
.
4a/
.
.
.
.
.
.
.
.
.
.
.
4b-\
.
.
.
.
.
.
.
.
.
.
.
4a/
.
.
.
.
.
.
.
.
.
.
.
=36
!!linebreak:original
4b-\
.
.
.
.
.
.
.
.
.
.
.
4bn\
.
.
.
.
.
.
.
.
.
.
.
4cc\
.
.
.
.
.
.
.
.
.
.
.
8cc#\
.
.
.
.
.
8a/
.
.
.
.
.
=37
(8dd\L
.
.
.
.
.
8ee\
.
.
.
.
.
8ff\
.
.
.
.
.
8ee\J
.
.
.
.
.
8dd\L
.
.
.
.
.
8cc#\
.
.
.
.
.
8dd\
.
.
.
.
.
8b-\J
.
.
.
.
.
=38
8a/L
.
.
.
.
.
8g#/J)
.
.
.
.
.
8a/L
.
.
.
.
.
8gn/J
.
.
.
.
.
4.f/
.
.
.
.
.
.
.
.
.
.
.
.
.
.
.
.
.
8e/
.
.
.
.
.
=39
!!linebreak:original
4d/
.
.
.
.
.
.
.
.
.
.
.
4r
.
.
.
.
.
.
.
.
.
.
.
2r
.
.
.
.
.
.
.
.
.
.
.
.
.
.
.
.
.
.
.
.
.
.
.
=40
1r
.
.
.
.
.
.
.
.
.
.
.
.
.
.
.
.
.
.
.
.
.
.
.
.
.
.
.
.
.
.
.
.
.
.
.
.
.
.
.
.
.
.
.
.
.
.
.
=41
1r
.
.
.
.
.
.
.
.
.
.
.
.
.
.
.
.
.
.
.
.
.
.
.
.
.
.
.
.
.
.
.
.
.
.
.
.
.
.
.
.
.
.
.
.
.
.
.
=42
1r
.
.
.
.
.
.
.
.
.
.
.
.
.
.
.
.
.
.
.
.
.
.
.
.
.
.
.
.
.
.
.
.
.
.
.
.
.
.
.
.
.
.
.
.
.
.
.
==
*-
